X: 4
T: McGoldrick's
R: jig
M: 6/8
L: 1/8
K: Dmaj
|: d3 cde | dBF E3 | DFB EGC | FAB CDE |d3 cde | dBF E3 | DFB EGC |[1 FBA BCE :|[2 FBA BAF ||G2 G GFG | d2 f dcA | c2 c dcA | FAc dcA |G2 G GFG | d2 f dcA |[1 c2 c dcA | GBF G2 F :|[2 c2 c dcc | g3 gfe |]


Tune 628	Setting 13649

